packages/kaspersky-hexa-ui-icons/src/iconsSVGs/28x20/FlagTj.svg

<svg width="28" height="20" viewBox="0 0 28 20" fill="none" xmlns="http://www.w3.org/2000/svg">
<g clip-path="url(#clip0_5138_1851)">
<path d="M0 2C0 0.895431 0.895431 0 2 0H26C27.1046 0 28 0.895431 28 2V18C28 19.1046 27.1046 20 26 20H2C0.895431 20 0 19.1046 0 18V2Z" fill="white"/>
<mask id="mask0_5138_1851" style="mask-type:luminance" maskUnits="userSpaceOnUse" x="0" y="0" width="28" height="20">
<rect width="28" height="20" rx="2" fill="white"/>
</mask>
<g mask="url(#mask0_5138_1851)">
<path d="M26 19.5V20H2V19.5H26ZM27.5 18V2C27.5 1.17157 26.8284 0.5 26 0.5H2C1.17157 0.5 0.5 1.17157 0.5 2V18C0.5 18.8284 1.17157 19.5 2 19.5V20C0.895431 20 0 19.1046 0 18V2C2.57702e-07 0.895431 0.895431 0 2 0H26C27.1046 0 28 0.895431 28 2V18C28 19.1046 27.1046 20 26 20V19.5C26.8284 19.5 27.5 18.8284 27.5 18Z" fill="#F5F5F5"/>
<path fill-rule="evenodd" clip-rule="evenodd" d="M0 6.66667H28V0H0V6.66667Z" fill="#D9101C"/>
<path fill-rule="evenodd" clip-rule="evenodd" d="M0 20H28V13.3333H0V20Z" fill="#0F7811"/>
<path fill-rule="evenodd" clip-rule="evenodd" d="M12.6667 9.33333C13.0349 9.33333 13.3333 9.03486 13.3333 8.66667C13.3333 8.29848 13.0349 8 12.6667 8C12.2985 8 12 8.29848 12 8.66667C12 9.03486 12.2985 9.33333 12.6667 9.33333ZM12.6667 10.6667H13.3333C13.3333 9.93029 13.6318 9.33333 14 9.33333C14.3682 9.33333 14.6667 9.93029 14.6667 10.6667H15.3333C15.7015 10.6667 16 10.9651 16 11.3333C16 11.7015 15.7015 12 15.3333 12H14H12.6667C12.2985 12 12 11.7015 12 11.3333C12 10.9651 12.2985 10.6667 12.6667 10.6667ZM15.3333 9.33333C15.7015 9.33333 16 9.03486 16 8.66667C16 8.29848 15.7015 8 15.3333 8C14.9652 8 14.6667 8.29848 14.6667 8.66667C14.6667 9.03486 14.9652 9.33333 15.3333 9.33333ZM18.6667 10C18.6667 10.3682 18.3682 10.6667 18 10.6667C17.6318 10.6667 17.3333 10.3682 17.3333 10C17.3333 9.63181 17.6318 9.33333 18 9.33333C18.3682 9.33333 18.6667 9.63181 18.6667 10ZM10 10.6667C10.3682 10.6667 10.6667 10.3682 10.6667 10C10.6667 9.63181 10.3682 9.33333 10 9.33333C9.63182 9.33333 9.33334 9.63181 9.33334 10C9.33334 10.3682 9.63182 10.6667 10 10.6667Z" fill="#FAD14E"/>
</g>
</g>
<defs>
<clipPath id="clip0_5138_1851">
<rect width="28" height="20" fill="white"/>
</clipPath>
</defs>
</svg>

<svg xmlns="http://www.w3.org/2000/svg" width="28" height="20" fill="none" viewBox="0 0 28 20"><g clip-path="url(#a)"><path fill="#fff" d="M0 2C0 .8954.8954 0 2 0h24c1.1046 0 2 .8954 2 2v16c0 1.1046-.8954 2-2 2H2c-1.1046 0-2-.8954-2-2z"/><mask id="b" width="28" height="20" x="0" y="0" maskUnits="userSpaceOnUse" style="mask-type:luminance"><rect width="28" height="20" fill="#fff" rx="2"/></mask><g mask="url(#b)"><path fill="#f5f5f5" d="M26 19.5v.5H2v-.5zm1.5-1.5V2c0-.8284-.6716-1.5-1.5-1.5H2C1.1716.5.5 1.1716.5 2v16c0 .8284.6716 1.5 1.5 1.5v.5c-1.1046 0-2-.8954-2-2V2C0 .8954.8954 0 2 0h24c1.1046 0 2 .8954 2 2v16c0 1.1046-.8954 2-2 2v-.5c.8284 0 1.5-.6716 1.5-1.5"/><path fill="#d9101c" fill-rule="evenodd" d="M0 6.6667h28V0H0z" clip-rule="evenodd"/><path fill="#0f7811" fill-rule="evenodd" d="M0 20h28v-6.6667H0z" clip-rule="evenodd"/><path fill="#fad14e" fill-rule="evenodd" d="M12.6667 9.3333a.6666.6666 0 0 0 .6666-.6666.6666.6666 0 1 0-1.3333 0c0 .3682.2985.6666.6667.6666m0 1.3334h.6666c0-.7364.2985-1.3334.6667-1.3334s.6667.597.6667 1.3334h.6666a.6666.6666 0 1 1 0 1.3333h-2.6666a.6667.6667 0 0 1 0-1.3333m2.6666-1.3334a.6667.6667 0 1 0 0-1.3333.6667.6667 0 0 0 0 1.3333M18.6667 10a.6667.6667 0 1 1-1.3334 0 .6667.6667 0 0 1 1.3334 0M10 10.6667a.6667.6667 0 1 0 0-1.3334.6667.6667 0 0 0 0 1.3334" clip-rule="evenodd"/></g></g><defs><clipPath id="a"><path fill="#fff" d="M0 0h28v20H0z"/></clipPath></defs></svg>
